!!!COM: Henri Reber
!!!CNT: Francais
!!!TXO: Francais
!!!OTL: La Fe/e Me/lior
!!!LYR: M. Fournier
!!!ODT: 1847/
!!!ENC: Jacob Pegg
!!!YOR: Romantic French Song 1830-1870, David Tunley, ed., New York: Garland Publishing, Inc., 1995, vol. 3
!!NB: Vocal melody and text only encoded.
!!NB: First instance of melodic material only encoded.
**kern	**silbe
*clef G2	*
*k[b-e-a-d-]	*
*M12/8	*
=4	=4
{4cc	{El
8cc	-le a-
8.cc	-vait
16cc	des
8cc	yeux
[4.cc	d'or
8cc]}	|}
8r	.
{16cc	{Des
16cc	ru-
=5	=5
(4cc	-bis
8dd-)	|
4ee-	en
8dd-	cou-
4.cc	-ron-
8cc}	-ne,}
8r	.
{8cc	{La
=6	=6
*M9/8	*
([4.ee-	bel-
8ee-]	|
8ff)	|
8ee-	-le
(8dd-	fe/e
8cc)	|
8dd-	Me/-
=7	=7
*M12/8	*
4cc	-lior;
8cc	La
[4.cc	bel-
4cc]	|
8cc	-le
(8cc	fe/e
8ddn)	|
8een	Me/-
=8	=8
4.ff}	-lior.}
4r	.
8r	.
2.r	.
=9	=9
1.r	.
=10	=10
{4cc	{De
8cc	la
4cc	blanche
16.cc	is-
32cc}	-le}
{[4.cc	{Dieu
8cc]	|
8r	.
8cc	Me/-
=11	=11
4cc	-lior,
8cc	e/-
(8ddn	-tait
8ee-)	|
8ddn	ba-
4.cc	-ron-
8cc}	-ne,}
8r	.
{8cc	{Et
=12	=12
4cc	da-
8cc	-me
4dd-	de
8ee-	haut
4.ff}	lieu.}
4r	.
8r	.
=13	=13
1.r	.
=14	=14
{4b-	{Mais
8b-	au
4b-	fond
16b-	de
16b-	la
[4.cc	mer
8cc]}	|}
8r	.
{8cc	{Me/-
=15	=15
4ddn	-lior
8ddn	a-
4ddn	-vait
8ddn	un
4.ee-	tro^-
4ee-}	-ne}
{16ee-	{De
16ee-	ve-
=16	=16
4.ee-	-lours
4ee-	et
8ee-	de
4.ee-}	Fer.}
4r	.
8r	.
=17	=17
1.r	.
=18	=18
{8cc	{Elle
8cc	at-
8cc	-tir-
4cc	-ait
8cc	les
[4.ee-	gars,
4ee-]}	|}
8r	.
=19	=19
{8dd-	{Les
8dd-	plus
8dd-	beaux
(8dd-	gars
8ff)	|
8dd-	d'O-
4.cc	-lon-
8cc}	-ne}
8r	.
{8cc	{Au
=20	=20
*M9/8	*
([4.cc	feu
8cc]	|
8ff)	|
8een	de
(8ddn	ses
8cc)	|
8dd	re-
=21	=21
*M12/8	*
4cc}	-gards.}
{8cc	{Au
([4.cc	feu
8cc]	|
8b-)	|
8cc	de
(8b-	ses
8cc)	|
8b-	re-
=22	=22
4.a-}	-gards.}
4r	.
8r	.
4r	.
8r	.
4r	.
16r	.
{16a-	{Me/-
=23	=23
4.a-	-lior
4a-	les
16a-	em-
16a-	-por-
2.a-	-tait,
=24	=24
8a-	Et
8a-	la
8a-	ma-
(8.a-	-re/e
16gn)	|
8a-	d'au-
4.a-	-tom-
4.a-}	-ne,}
=25	=25
{2.g	{Pa^-
4.g	-les
4g	les
16g	rap-
16g	-por-
=26	=26
4.g}	-tait.}
4r	.
8r	.
2.r	.
=27	=27
2.r	.
4r	.
8r	.
4r	.
{8cc	{Les
=28	=28
4.cc	gars
4cc	en
16cc	de/-
16cc	-con-
[4.cc	-fort
8cc]}	|}
8r	.
{8cc	{N'a-
=29	=29
4cc	-vaient
8dd-	trou-
4ee-	-ve/
8dd-	per-
4.cc	-son-
8cc}	-ne,}
8r	.
{8cc	{Per-
=30	=30
4cc	-son-
8cc	-ne
4cc	que
8b-	la
[2.cc	Mort.
=31	=31
4.cc]}	|}
4r	.
8r	.
2.r;	.
*-	*-
